X: 889
T: Gördüm Bugün
C: Dede Efendi
O: Turkey
F: http://compmusic.upf.edu/node/140
N: mahur--sarki--sofyan--gordum_bugun--dede_efendi
N: makam= mahur
N: form= sarki
N: usul= sofyan = 4/4
M: 4/4
L: 1/16
K: C ^9/8f   
Q: 1/4=90
%%MIDI tuningsystem comma53
g3b a3g f3a g2f2  | e3g f2e2 edd^c d4  | \
w:   |   | 
z2e4g2 f3d e2f2  | 
w:   | 
edd4d4A2 B^cd4z2 g4 =feag fed4=c2 e2c2 e2d3cBA  | 
w:   | 
B2z2 A4 c2cB BAAG  | GFG8d2 efg4g3ba3gf3ag2  | 
w:   |   | 
f2e3gf2 e2ed d^cd4z2 e4 g2f3de2  | \
w:   | 
f2ed d4 d4 A2B^c  | 
w:   | 
d4 z2g4=fe agfe  | d4 c2e2 c2e2 d3c  | \
w:   |   | 
BAB2 z2A4c2 cBBA  | 
w:   | 
AGGF G8 d2ef  | g4 z2g4a2 b3a  | c'2ba c'ba4d'2 d'c'ba  | 
w:   |   |   | 
g4 z2g4c'2 b3g  | a2ag g8 d2ef  | g4 z2g4f2 e2d2  | \
w:   |   |   | 
e2f2 g4 f2b2 agg8z2 c'4 c'bb3aa4g2 a4 gfag  | 
w:   | 
=fed4z2 a2g2 f2f3ee3dd_7/8e dede dcg2  | \
w:   | 
g2g3/2f/ _7/8edc2 c4 cBB2  | 
w:   | 
^ABc2 cBB4AB cBB8z2 d6d4g4g2 f2e2 d2c2  | \
w:   | 
B2A2 d2z2 B4 G2A2  | 
w:   | 
GAB2 AGG8d2  | efg4g2 fgac' baga  | gffe d2e2 defa g=fef  | 
w:   |   |   | 
eddc B2GA Bcde dcBA  | GBAG FAG3AB2 c2d2  | 
w:   |   | 
e2f2 g2g2 fgac' baga  | gffe d2e2 defa g=fef  | 
w:   |   | 
eddc B2GA Bcde dcBA  | GBAG FAG3ABA GFG6 z2|
w:   |   | 


